!! 00015] TT[TB
!! Zh. Ch. 1-3733, nn), J 3074)
!!!OTL: Dui hua
!!!ARE: Asia, China,ÿHenan
!! Ethnic Group: Han
!! MM,
!!!SCT: C0676
!!!YEM: Copyright 1995, estate of Helmut Schaffrath.
**kern
*ICvox
*Ivox
*M2/4
*k[f#c#g#d#]
*E:
{8cc#
8ff#
8dd#
8cc#
=1
8cc#
8g#
8b
8ee
=2
8ee
8g#
8g#
8f#
=3
4e
8e
8c#}
=4
{8ff#
8dd#
8cc#
8b
=5
8cc#
8g#
4b
=6
8.ee
16g#
8g#
8f#
=7
4e
8e
8c#}
=8
{8.b
16g#
8f#
8g#
=9
4b
8b
8b
=10
8.cc#
16b
8f#
8g#
=11
4b
4b}
=12
{4g#
8ee
8g#
=13
4g#
8ee
8g#
=14
8f#
8b
8b
8b
=15
8cc#
8g#
8cc#
8g#}
=16
{8.ee
16ee
8ee
8ee
=17
8cc#
8b
[4cc#
=18
4cc#]
4ee
=19
8ee
8g#
8g#
8f#
=20
8g#
8b
[4f#
=21
4f#]}
{[4b
=22
4b]
4ee
=23
8.g#
16f#
8g#
8b
=24
4e
4e}
=25
{8.ee
16ee
8ee
8cc#
=26
4b
4b
=27
8f#
8g#
8f#
8g#
=28
4b
4b}
=29
{8.ee
16ee
8ee
8cc#
=30
4b
4b
=31
8ee
8g#
8g#
8f#
=32
4e
4e}
=33
{8cc#
8b
[4cc#
=34
4cc#]
4ee
=35
8ee
8g#
8g#
8f#
=36
8.e
16f#
8e
8f#
=37
8.e
16f#
8e
8f#
=38
[2b
=39
2b]}
=40
{8b
4b
8ee
=41
8gg#
8ff#
8ee
8ff#
=42
2ee}
==
!!!AGN: Xiaodiao. Chang huahui
!! Notenbeilage kopiert.
!!    Diese Sammlung enthaelt mit Stand 1987 wenigstens 32 Aufnahmen
!!    mit dem Titel "Dui hua"
!!    Zweistimmig!!! Angegeben ist der Notentext der 3. Strophe in der Ober-
!!    stimme. Die letzte Phrase wird in Strophe 1,2 eine Oktave tiefer,
!!    die T.3,4 / Phr.7 und T.1,3 / Phr.10 von der Unterstimme gesungen,
!!    Oberstimme pausiert). +++Korr. nach Shen Qia+++ Phrasen kontrollieren!+++
!!    Einige Verzierungen. Vor- und Zwischenspiele weggelassen.
!!!ONB: ESAC (Essen Associative Code) Database: CHINA
!!!AMT: simple duple
!!!AIN: vox
!!!EED: Helmut Schaffrath
!!!EEV: 1.0
*-
!!!ONB: Tied note syntax fixed by Craig Sapp, 2004/05/03/
